svg/Pictogram/pictograms-nps-land-wildlife_viewing.svg

<svg xmlns="http://www.w3.org/2000/svg" width="123.55" height="123.54" viewBox="-0.258 -0.548 123.547 123.539" enable-background="new -0.258 -0.548 123.547 123.539"><path d="m108.66 122.7c8.148 0 14.742-6.594 14.742-14.742v-94.05c0-8.156-6.594-14.742-14.742-14.742h-94c-8.156 0-14.773 6.586-14.773 14.742v94.05c0 8.148 6.617 14.742 14.773 14.742h94"/><path d="m14.656 1.668c-6.765 0-12.273 5.492-12.273 12.242v94.05c0 6.75 5.508 12.242 12.273 12.242h94c6.758 0 12.258-5.492 12.258-12.242v-94.05c0-6.75-5.5-12.242-12.258-12.242h-94"/><g fill="#fff"><path d="m38.555 18.48h15.688v11.227h-15.688z"/><path d="m71.938 66.918c-1.492 0-2.68-1.203-2.68-2.688v-31.01h23.695l9.992 42.31-.055 2.734v18.695c0 1.445-1.172 2.617-2.609 2.617h-23.05c-1.445 0-2.617-1.172-2.617-2.617v-30.05h-2.484"/><path d="m51.48 66.988c1.484 0 2.688-1.195 2.688-2.688v-31.03h-23.672l-10.01 42.31.047 2.758v18.703c0 1.438 1.172 2.609 2.609 2.609h23.04c1.461 0 2.633-1.172 2.633-2.609v-30.05h2.469"/><path d="m57.633 33.27h8.133v28.812h-8.133z"/><path d="m69.26 18.48h15.688v11.227h-15.688z"/></g></svg>

<?xml version="1.0" encoding="iso-8859-1"?>
<!-- Generator: Adobe Illustrator 13.0.2, SVG Export Plug-In . SVG Version: 6.00 Build 14948)  -->
<!DOCTYPE svg PUBLIC "-//W3C//DTD SVG 1.1//EN" "http://www.w3.org/Graphics/SVG/1.1/DTD/svg11.dtd">
<svg version="1.1" id="Layer_1" xmlns="http://www.w3.org/2000/svg" xmlns:xlink="http://www.w3.org/1999/xlink" x="0px" y="0px"
	 width="123.547px" height="123.539px" viewBox="-0.258 -0.548 123.547 123.539"
	 style="enable-background:new -0.258 -0.548 123.547 123.539;" xml:space="preserve">
<g>
	<path d="M108.656,122.699c8.148,0,14.742-6.594,14.742-14.742V13.91c0-8.156-6.594-14.742-14.742-14.742h-94
		C6.5-0.832-0.117,5.754-0.117,13.91v94.047c0,8.148,6.617,14.742,14.773,14.742H108.656z"/>
	<path d="M14.656,1.668C7.891,1.668,2.383,7.16,2.383,13.91v94.047c0,6.75,5.508,12.242,12.273,12.242h94
		c6.758,0,12.258-5.492,12.258-12.242V13.91c0-6.75-5.5-12.242-12.258-12.242H14.656z"/>
	<rect x="38.555" y="18.48" style="fill:#FFFFFF;" width="15.688" height="11.227"/>
	<path style="fill:#FFFFFF;" d="M71.938,66.918c-1.492,0-2.68-1.203-2.68-2.688V33.223h23.695l9.992,42.312l-0.055,2.734v18.695
		c0,1.445-1.172,2.617-2.609,2.617H77.234c-1.445,0-2.617-1.172-2.617-2.617V66.918h-2.484"/>
	<path style="fill:#FFFFFF;" d="M51.484,66.988c1.484,0,2.688-1.195,2.688-2.688V33.27H30.5L20.492,75.582l0.047,2.758v18.703
		c0,1.438,1.172,2.609,2.609,2.609h23.039c1.461,0,2.633-1.172,2.633-2.609V66.988h2.469"/>
	<rect x="57.633" y="33.27" style="fill:#FFFFFF;" width="8.133" height="28.812"/>
	<rect x="69.258" y="18.48" style="fill:#FFFFFF;" width="15.688" height="11.227"/>
</g>
</svg>
